X: 3507
T: Biddy Martin's
R: polka
M: 2/4
K: Cmajor
|:e/d/c Ad|de dc|e/d/c Ad|dG c2|
e/d/c Ad|de dc|e/d/c Ad|dG c2:|
|:e/g/e d/e/e|ge dc|e/g/e d/e/e|ge d2|
e/g/e d/e/e|ge dc|e/d/c Ad|dG c2:|

